X: 12854
T: Ferguson's Rant
R: hornpipe
M: 4/4
K: Gmajor
|:dc|B2 AG DGBG|FAdA DGBG|B2 AG DGBG|B2 A2A2 dc|
BGDG cAFA|dBGB ecAc|gfed cBAd|B2G2G2:|
|:ga|bgdg Bdgd|gdBg BdgB|cedc BGdB|c2 BA A2 dc|
BGDG cAFA|cBGB ecAf|gfed BdAd|B2G2G2:|

